public/images/icons/europe-stars.svg

<svg width="131" height="126" viewBox="0 0 131 126" fill="none" xmlns="http://www.w3.org/2000/svg">
<g filter="url(#filter0_d_1870_48782)">
<ellipse cx="58.8754" cy="58.2727" rx="50.152" ry="50" fill="#FFE7D3"/>
</g>
<g filter="url(#filter1_d_1870_48782)">
<ellipse cx="58.8754" cy="58.2727" rx="50.152" ry="50" fill="#82A5FF"/>
</g>
<g filter="url(#filter2_d_1870_48782)">
<path fill-rule="evenodd" clip-rule="evenodd" d="M58.8754 8.76579C31.4504 8.76579 9.21799 30.9308 9.21799 58.2727C9.21799 85.6147 31.4504 107.78 58.8754 107.78C86.3004 107.78 108.533 85.6147 108.533 58.2727C108.533 30.9308 86.3004 8.76579 58.8754 8.76579ZM1.42859 58.2727C1.42859 26.6419 27.1484 1 58.8754 1C90.6024 1 116.322 26.6419 116.322 58.2727C116.322 89.9036 90.6024 115.545 58.8754 115.545C27.1484 115.545 1.42859 89.9036 1.42859 58.2727Z" fill="#F2F5F7"/>
<path fill-rule="evenodd" clip-rule="evenodd" d="M58.8754 8.76579C31.4504 8.76579 9.21799 30.9308 9.21799 58.2727C9.21799 85.6147 31.4504 107.78 58.8754 107.78C86.3004 107.78 108.533 85.6147 108.533 58.2727C108.533 30.9308 86.3004 8.76579 58.8754 8.76579ZM1.42859 58.2727C1.42859 26.6419 27.1484 1 58.8754 1C90.6024 1 116.322 26.6419 116.322 58.2727C116.322 89.9036 90.6024 115.545 58.8754 115.545C27.1484 115.545 1.42859 89.9036 1.42859 58.2727Z" stroke="black"/>
</g>
<g filter="url(#filter3_d_1870_48782)">
<path d="M107.797 118.993L97.1959 87.8983C97.0873 87.5797 97.3888 87.2747 97.7007 87.3876L128.041 98.3726C128.37 98.4918 128.396 98.9559 128.082 99.1124L117.205 104.538C117.119 104.581 117.101 104.697 117.168 104.765L129.358 117.187C130.214 118.059 130.214 119.473 129.358 120.346C128.502 121.218 127.114 121.218 126.258 120.346L114.068 107.924C114 107.856 113.887 107.875 113.845 107.962L108.524 119.037C108.37 119.358 107.912 119.33 107.797 118.993Z" fill="white"/>
<path d="M107.324 119.154L96.7227 88.0596C96.4863 87.3664 97.1425 86.6538 97.8709 86.9175M107.324 119.154L97.8709 86.9175M107.324 119.154C107.582 119.912 108.625 119.981 108.975 119.254L114.072 108.643L125.901 120.696C126.953 121.768 128.663 121.768 129.715 120.696C130.762 119.629 130.762 117.903 129.715 116.836L117.869 104.766L128.306 99.5599C129.01 99.2085 128.957 98.1723 128.211 97.9025L97.8709 86.9175M107.324 119.154L97.8709 86.9175" stroke="#182026"/>
</g>
<path d="M63.6991 79.9318C64.572 79.9298 64.9333 78.8125 64.2259 78.3025L60.6987 75.7601L62.0347 71.6282C62.3027 70.7991 61.3533 70.1129 60.6482 70.6261L57.1294 73.1873L53.5997 70.643C52.8927 70.1334 51.9446 70.8265 52.2165 71.6543L53.5709 75.7775L50.0561 78.3358C49.3505 78.8494 49.714 79.9641 50.5865 79.9621L54.9421 79.952L56.2981 84.08C56.5698 84.9071 57.7425 84.9028 58.0105 84.0738L59.3465 79.9419L63.6991 79.9318ZM57.0708 73.23C57.0709 73.2299 57.071 73.2299 57.0711 73.2298L57.0708 73.23ZM53.6298 75.7346L53.6296 75.7348L53.6298 75.7346ZM54.9195 79.8832L54.9196 79.8834L54.9195 79.8832Z" fill="#FFCF55" stroke="black"/>
<path d="M63.6991 43.3766C64.572 43.3746 64.9333 42.2573 64.2259 41.7474L60.6987 39.2049L62.0347 35.073C62.3027 34.2439 61.3533 33.5577 60.6482 34.0709L57.1294 36.6321L53.5997 34.0879C52.8927 33.5782 51.9446 34.2714 52.2165 35.0992L53.5709 39.2223L50.0561 41.7806C49.3505 42.2943 49.714 43.4089 50.5865 43.4069L54.9421 43.3969L56.2981 47.5248C56.5698 48.3519 57.7425 48.3476 58.0105 47.5186L59.3465 43.3867L63.6991 43.3766ZM57.0708 36.6748C57.0709 36.6748 57.071 36.6747 57.0711 36.6746L57.0708 36.6748ZM53.6298 39.1794L53.6296 39.1796L53.6298 39.1794ZM54.9195 43.328L54.9196 43.3282L54.9195 43.328Z" fill="#FFCF55" stroke="black"/>
<path d="M36.367 83.4621C36.6369 84.2903 37.8085 84.2903 38.0784 83.4621L39.3562 79.5413L43.4889 79.5413C44.3614 79.5413 44.7235 78.4243 44.0169 77.9125L40.6758 75.4924L41.9524 71.5752C42.2225 70.7465 41.2747 70.0562 40.5688 70.5675L37.2227 72.9912L33.8766 70.5675C33.1708 70.0562 32.2229 70.7465 32.493 71.5752L33.7696 75.4924L30.4285 77.9125C29.7219 78.4243 30.084 79.5413 30.9565 79.5413L35.0892 79.5413L36.367 83.4621ZM40.6532 75.5616L40.6533 75.5614L40.6532 75.5616ZM37.164 73.0336C37.1641 73.0336 37.1642 73.0336 37.1642 73.0335L37.164 73.0336Z" fill="#FFCF55" stroke="black"/>
<path d="M36.367 46.9069C36.6369 47.7351 37.8085 47.7351 38.0784 46.9069L39.3562 42.9862L43.4889 42.9862C44.3614 42.9862 44.7235 41.8691 44.0169 41.3573L40.6758 38.9372L41.9524 35.02C42.2225 34.1913 41.2747 33.501 40.5688 34.0123L37.2227 36.436L33.8766 34.0123C33.1708 33.501 32.2229 34.1913 32.493 35.02L33.7696 38.9372L30.4285 41.3573C29.7219 41.8691 30.084 42.9862 30.9565 42.9862L35.0892 42.9862L36.367 46.9069ZM40.6532 39.0064L40.6533 39.0062L40.6532 39.0064ZM37.164 36.4785C37.1641 36.4784 37.1642 36.4784 37.1642 36.4783L37.164 36.4785Z" fill="#FFCF55" stroke="black"/>
<path d="M77.3009 83.4621C77.5708 84.2903 78.7424 84.2903 79.0123 83.4621L80.2901 79.5413L84.4228 79.5413C85.2953 79.5413 85.6574 78.4243 84.9508 77.9125L81.6097 75.4924L82.8863 71.5752C83.1564 70.7465 82.2086 70.0562 81.5027 70.5675L78.1566 72.9912L74.8105 70.5675C74.1047 70.0562 73.1568 70.7465 73.4269 71.5752L74.7035 75.4924L71.3624 77.9125C70.6558 78.4243 71.0179 79.5413 71.8904 79.5413L76.0231 79.5413L77.3009 83.4621ZM81.5871 75.5616L81.5872 75.5614L81.5871 75.5616ZM78.0979 73.0336C78.098 73.0336 78.0981 73.0336 78.0981 73.0335L78.0979 73.0336Z" fill="#FFCF55" stroke="black"/>
<path d="M77.3009 46.9069C77.5708 47.7351 78.7424 47.7351 79.0123 46.9069L80.2901 42.9862L84.4228 42.9862C85.2953 42.9862 85.6574 41.8691 84.9508 41.3573L81.6097 38.9372L82.8863 35.02C83.1564 34.1913 82.2086 33.501 81.5027 34.0123L78.1566 36.436L74.8105 34.0123C74.1047 33.501 73.1568 34.1913 73.4269 35.02L74.7035 38.9372L71.3624 41.3573C70.6558 41.8691 71.0179 42.9862 71.8904 42.9862L76.0231 42.9862L77.3009 46.9069ZM81.5871 39.0064L81.5872 39.0062L81.5871 39.0064ZM78.0979 36.4785C78.098 36.4784 78.0981 36.4784 78.0981 36.4783L78.0979 36.4785Z" fill="#FFCF55" stroke="black"/>
<path d="M70.9051 51.1029C70.6352 50.2748 69.4636 50.2748 69.1937 51.1029L67.9159 55.0237H63.7832C62.9107 55.0237 62.5486 56.1408 63.2552 56.6526L66.5963 59.0727L65.3197 62.9899C65.0496 63.8186 65.9975 64.5089 66.7033 63.9976L70.0494 61.5739L73.3955 63.9976C74.1014 64.5089 75.0492 63.8185 74.7792 62.9899L73.5025 59.0727L76.8436 56.6526C77.5502 56.1408 77.1882 55.0237 76.3156 55.0237H72.1829L70.9051 51.1029ZM66.6189 59.0034L66.6188 59.0037L66.6189 59.0034ZM70.1081 61.5314C70.108 61.5315 70.108 61.5315 70.1079 61.5316L70.1081 61.5314Z" fill="#FFCF55" stroke="black"/>
<path d="M50.7452 51.1029C50.4753 50.2748 49.3037 50.2748 49.0338 51.1029L47.756 55.0237H43.6233C42.7508 55.0237 42.3887 56.1408 43.0953 56.6526L46.4364 59.0727L45.1598 62.9899C44.8897 63.8186 45.8376 64.5089 46.5434 63.9976L49.8895 61.5739L53.2356 63.9976C53.9415 64.5089 54.8893 63.8185 54.6192 62.9899L53.3426 59.0727L56.6837 56.6526C57.3903 56.1408 57.0282 55.0237 56.1557 55.0237H52.023L50.7452 51.1029ZM46.459 59.0034L46.4589 59.0037L46.459 59.0034ZM49.9482 61.5314C49.9481 61.5315 49.948 61.5315 49.948 61.5316L49.9482 61.5314Z" fill="#FFCF55" stroke="black"/>
<path d="M23.4132 54.6333C22.5402 54.6353 22.1789 55.7526 22.8864 56.2625L26.4136 58.805L25.0776 62.9369C24.8095 63.7659 25.7589 64.4522 26.464 63.939L29.9828 61.3777L33.5125 63.922C34.2196 64.4317 35.1676 63.7385 34.8957 62.9107L33.5414 58.7876L37.0561 56.2293C37.7618 55.7156 37.3982 54.601 36.5257 54.603L32.1701 54.613L30.8142 50.4851C30.5425 49.658 29.3698 49.6623 29.1017 50.4913L27.7657 54.6232L23.4132 54.6333ZM33.4824 58.8305L33.4827 58.8303L33.4824 58.8305Z" fill="#FFCF55" stroke="black"/>
<path d="M83.5955 54.6333C82.7225 54.6353 82.3613 55.7526 83.0687 56.2625L86.5959 58.805L85.2599 62.9369C84.9918 63.7659 85.9413 64.4522 86.6463 63.939L90.1651 61.3777L93.6948 63.922C94.4019 64.4317 95.35 63.7385 95.078 62.9107L93.7237 58.7876L97.2384 56.2293C97.9441 55.7156 97.5806 54.601 96.708 54.603L92.3524 54.613L90.9965 50.4851C90.7248 49.658 89.5521 49.6623 89.284 50.4913L87.948 54.6232L83.5955 54.6333ZM93.6647 58.8305L93.665 58.8303L93.6647 58.8305Z" fill="#FFCF55" stroke="black"/>
<defs>
<filter id="filter0_d_1870_48782" x="8.72342" y="8.27271" width="100.304" height="104" filterUnits="userSpaceOnUse" color-interpolation-filters="sRGB">
<feFlood flood-opacity="0" result="BackgroundImageFix"/>
<feColorMatrix in="SourceAlpha" type="matrix" values="0 0 0 0 0 0 0 0 0 0 0 0 0 0 0 0 0 0 127 0" result="hardAlpha"/>
<feOffset dy="4"/>
<feComposite in2="hardAlpha" operator="out"/>
<feColorMatrix type="matrix" values="0 0 0 0 0 0 0 0 0 0 0 0 0 0 0 0 0 0 1 0"/>
<feBlend mode="normal" in2="BackgroundImageFix" result="effect1_dropShadow_1870_48782"/>
<feBlend mode="normal" in="SourceGraphic" in2="effect1_dropShadow_1870_48782" result="shape"/>
</filter>
<filter id="filter1_d_1870_48782" x="8.72342" y="8.27271" width="100.304" height="104" filterUnits="userSpaceOnUse" color-interpolation-filters="sRGB">
<feFlood flood-opacity="0" result="BackgroundImageFix"/>
<feColorMatrix in="SourceAlpha" type="matrix" values="0 0 0 0 0 0 0 0 0 0 0 0 0 0 0 0 0 0 127 0" result="hardAlpha"/>
<feOffset dy="4"/>
<feComposite in2="hardAlpha" operator="out"/>
<feColorMatrix type="matrix" values="0 0 0 0 0 0 0 0 0 0 0 0 0 0 0 0 0 0 1 0"/>
<feBlend mode="normal" in2="BackgroundImageFix" result="effect1_dropShadow_1870_48782"/>
<feBlend mode="normal" in="SourceGraphic" in2="effect1_dropShadow_1870_48782" result="shape"/>
</filter>
<filter id="filter2_d_1870_48782" x="0.928589" y="0.5" width="115.894" height="119.545" filterUnits="userSpaceOnUse" color-interpolation-filters="sRGB">
<feFlood flood-opacity="0" result="BackgroundImageFix"/>
<feColorMatrix in="SourceAlpha" type="matrix" values="0 0 0 0 0 0 0 0 0 0 0 0 0 0 0 0 0 0 127 0" result="hardAlpha"/>
<feOffset dy="4"/>
<feComposite in2="hardAlpha" operator="out"/>
<feColorMatrix type="matrix" values="0 0 0 0 0 0 0 0 0 0 0 0 0 0 0 0 0 0 1 0"/>
<feBlend mode="normal" in2="BackgroundImageFix" result="effect1_dropShadow_1870_48782"/>
<feBlend mode="normal" in="SourceGraphic" in2="effect1_dropShadow_1870_48782" result="shape"/>
</filter>
<filter id="filter3_d_1870_48782" x="96.174" y="86.359" width="34.8261" height="39.641" filterUnits="userSpaceOnUse" color-interpolation-filters="sRGB">
<feFlood flood-opacity="0" result="BackgroundImageFix"/>
<feColorMatrix in="SourceAlpha" type="matrix" values="0 0 0 0 0 0 0 0 0 0 0 0 0 0 0 0 0 0 127 0" result="hardAlpha"/>
<feOffset dy="4"/>
<feComposite in2="hardAlpha" operator="out"/>
<feColorMatrix type="matrix" values="0 0 0 0 0 0 0 0 0 0 0 0 0 0 0 0 0 0 1 0"/>
<feBlend mode="normal" in2="BackgroundImageFix" result="effect1_dropShadow_1870_48782"/>
<feBlend mode="normal" in="SourceGraphic" in2="effect1_dropShadow_1870_48782" result="shape"/>
</filter>
</defs>
</svg>

<svg fill="none" viewBox="0 0 131 126"><g filter="url(#filter0_d_1870_48782)"><ellipse cx="58.875" cy="58.273" fill="#FFE7D3" rx="50.152" ry="50"/></g><g filter="url(#filter1_d_1870_48782)"><ellipse cx="58.875" cy="58.273" fill="#82A5FF" rx="50.152" ry="50"/></g><g fill-rule="evenodd" clip-rule="evenodd" filter="url(#filter2_d_1870_48782)"><path fill="#F2F5F7" d="M58.875 8.766C31.45 8.766 9.218 30.93 9.218 58.273S31.45 107.78 58.875 107.78c27.425 0 49.658-22.165 49.658-49.507S86.3 8.766 58.875 8.766zM1.43 58.273C1.429 26.642 27.149 1 58.875 1c31.727 0 57.447 25.642 57.447 57.273 0 31.63-25.72 57.272-57.447 57.272-31.727 0-57.446-25.641-57.446-57.272z"/><path stroke="#000" d="M58.875 8.766C31.45 8.766 9.218 30.93 9.218 58.273S31.45 107.78 58.875 107.78c27.425 0 49.658-22.165 49.658-49.507S86.3 8.766 58.875 8.766zM1.43 58.273C1.429 26.642 27.149 1 58.875 1c31.727 0 57.447 25.642 57.447 57.273 0 31.63-25.72 57.272-57.447 57.272-31.727 0-57.446-25.641-57.446-57.272z"/></g><g filter="url(#filter3_d_1870_48782)"><path fill="#fff" d="M107.797 118.993L97.196 87.898c-.109-.318.193-.623.505-.51l30.34 10.985a.405.405 0 01.041.74l-10.877 5.425a.143.143 0 00-.037.227l12.19 12.422a2.264 2.264 0 010 3.159 2.164 2.164 0 01-3.1 0l-12.19-12.422a.138.138 0 00-.223.038l-5.321 11.075a.392.392 0 01-.727-.044z"/><path stroke="#182026" d="M107.324 119.154L96.723 88.06c-.237-.694.42-1.406 1.148-1.142m9.453 32.236l-9.453-32.236m9.453 32.236c.258.758 1.301.827 1.651.1l5.097-10.611 11.829 12.053a2.664 2.664 0 003.814 0 2.764 2.764 0 000-3.86l-11.846-12.07 10.437-5.206c.704-.352.651-1.388-.095-1.657l-30.34-10.986m9.453 32.237l-9.453-32.236"/></g><path fill="#FFCF55" stroke="#000" d="M63.7 79.932c.872-.002 1.233-1.12.526-1.63l-3.527-2.542 1.336-4.132c.268-.829-.682-1.515-1.387-1.002l-3.519 2.561-3.53-2.544c-.706-.51-1.654.183-1.382 1.011l1.354 4.124-3.515 2.558c-.706.513-.342 1.628.53 1.626l4.356-.01 1.356 4.128c.272.827 1.444.823 1.712-.006l1.337-4.132 4.352-.01zm-6.63-6.702h.001zm-3.44 2.505h0zm1.29 4.148h0zm8.78-36.506c.872-.002 1.233-1.12.526-1.63l-3.527-2.542 1.336-4.132c.268-.83-.682-1.515-1.387-1.002l-3.519 2.561-3.53-2.544c-.706-.51-1.654.183-1.382 1.011l1.354 4.123-3.515 2.559c-.706.513-.342 1.628.53 1.626l4.356-.01 1.356 4.128c.272.827 1.444.823 1.712-.006l1.337-4.132 4.352-.01zm-6.63-6.702h.001zm-3.44 2.504h0zm1.29 4.149h0zM36.367 83.462c.27.828 1.442.828 1.711 0l1.278-3.92h4.133c.872 0 1.235-1.118.528-1.63l-3.341-2.42 1.276-3.917c.27-.829-.677-1.519-1.383-1.008l-3.346 2.424-3.346-2.424c-.706-.51-1.654.18-1.384 1.008l1.277 3.917-3.342 2.42c-.706.512-.344 1.63.528 1.63h4.133l1.278 3.92zm4.286-7.9h0zm-3.489-2.528s0 0 0 0h0zm-.797-26.127c.27.828 1.442.828 1.711 0l1.278-3.92h4.133c.872 0 1.235-1.118.528-1.63l-3.341-2.42 1.276-3.917c.27-.829-.677-1.519-1.383-1.008l-3.346 2.424-3.346-2.424c-.706-.511-1.654.18-1.384 1.008l1.277 3.917-3.342 2.42c-.706.512-.344 1.63.528 1.63h4.133l1.278 3.92zm4.286-7.9h0zm-3.489-2.529s0 0 0 0h0zm40.137 46.984c.27.828 1.441.828 1.711 0l1.278-3.92h4.133c.872 0 1.234-1.118.528-1.63l-3.341-2.42 1.276-3.917c.27-.829-.677-1.519-1.383-1.008l-3.346 2.424-3.346-2.424c-.706-.51-1.654.18-1.384 1.008l1.276 3.917-3.34 2.42c-.707.512-.345 1.63.527 1.63h4.133l1.278 3.92zm4.286-7.9h0zm-3.49-2.528h.001zm-.796-26.127c.27.828 1.441.828 1.711 0l1.278-3.92h4.133c.872 0 1.234-1.118.528-1.63l-3.341-2.42 1.276-3.917c.27-.829-.677-1.519-1.383-1.008l-3.346 2.424-3.346-2.424c-.706-.511-1.654.18-1.384 1.008l1.276 3.917-3.34 2.42c-.707.512-.345 1.63.527 1.63h4.133l1.278 3.92zm4.286-7.9h0zm-3.49-2.529h.001zm-7.192 14.625c-.27-.828-1.441-.828-1.711 0l-1.278 3.92h-4.133c-.872 0-1.234 1.118-.528 1.63l3.341 2.42-1.276 3.917c-.27.829.678 1.519 1.383 1.008l3.346-2.424 3.346 2.424c.706.51 1.654-.18 1.384-1.008l-1.276-3.917 3.34-2.42c.707-.512.345-1.63-.527-1.63h-4.133l-1.278-3.92zm-4.286 7.9h0zm3.49 2.528h-.001 0zM50.744 51.103c-.27-.828-1.441-.828-1.711 0l-1.278 3.92h-4.133c-.872 0-1.234 1.118-.528 1.63l3.341 2.42-1.276 3.917c-.27.829.678 1.519 1.383 1.008l3.346-2.424 3.347 2.424c.706.51 1.653-.18 1.383-1.008l-1.276-3.917 3.34-2.42c.707-.512.345-1.63-.527-1.63h-4.133l-1.278-3.92zm-4.286 7.9h0zm3.49 2.528h-.001 0zm-26.536-6.898c-.873.002-1.234 1.12-.527 1.63l3.528 2.542-1.336 4.132c-.268.829.68 1.515 1.386 1.002l3.519-2.561 3.53 2.544c.707.51 1.655-.183 1.383-1.011l-1.355-4.123 3.515-2.559c.706-.513.342-1.628-.53-1.626l-4.356.01-1.356-4.128c-.271-.827-1.444-.823-1.712.006l-1.336 4.132-4.353.01zm10.07 4.197h0zm50.113-4.197c-.874.002-1.235 1.12-.527 1.63l3.527 2.542-1.336 4.132c-.268.829.681 1.515 1.386 1.002l3.52-2.561 3.529 2.544c.707.51 1.655-.183 1.383-1.011l-1.354-4.123 3.514-2.559c.706-.513.343-1.628-.53-1.626l-4.356.01-1.356-4.128c-.271-.827-1.444-.823-1.712.006l-1.336 4.132-4.352.01zm10.069 4.197h0z"/><defs><filter id="filter0_d_1870_48782" width="100.304" height="104" x="8.723" y="8.273" color-interpolation-filters="sRGB" filterUnits="userSpaceOnUse"><feFlood flood-opacity="0" result="BackgroundImageFix"/><feColorMatrix in="SourceAlpha" result="hardAlpha" values="0 0 0 0 0 0 0 0 0 0 0 0 0 0 0 0 0 0 127 0"/><feOffset dy="4"/><feComposite in2="hardAlpha" operator="out"/><feColorMatrix values="0 0 0 0 0 0 0 0 0 0 0 0 0 0 0 0 0 0 1 0"/><feBlend in2="BackgroundImageFix" result="effect1_dropShadow_1870_48782"/><feBlend in="SourceGraphic" in2="effect1_dropShadow_1870_48782" result="shape"/></filter><filter id="filter1_d_1870_48782" width="100.304" height="104" x="8.723" y="8.273" color-interpolation-filters="sRGB" filterUnits="userSpaceOnUse"><feFlood flood-opacity="0" result="BackgroundImageFix"/><feColorMatrix in="SourceAlpha" result="hardAlpha" values="0 0 0 0 0 0 0 0 0 0 0 0 0 0 0 0 0 0 127 0"/><feOffset dy="4"/><feComposite in2="hardAlpha" operator="out"/><feColorMatrix values="0 0 0 0 0 0 0 0 0 0 0 0 0 0 0 0 0 0 1 0"/><feBlend in2="BackgroundImageFix" result="effect1_dropShadow_1870_48782"/><feBlend in="SourceGraphic" in2="effect1_dropShadow_1870_48782" result="shape"/></filter><filter id="filter2_d_1870_48782" width="115.894" height="119.545" x=".929" y=".5" color-interpolation-filters="sRGB" filterUnits="userSpaceOnUse"><feFlood flood-opacity="0" result="BackgroundImageFix"/><feColorMatrix in="SourceAlpha" result="hardAlpha" values="0 0 0 0 0 0 0 0 0 0 0 0 0 0 0 0 0 0 127 0"/><feOffset dy="4"/><feComposite in2="hardAlpha" operator="out"/><feColorMatrix values="0 0 0 0 0 0 0 0 0 0 0 0 0 0 0 0 0 0 1 0"/><feBlend in2="BackgroundImageFix" result="effect1_dropShadow_1870_48782"/><feBlend in="SourceGraphic" in2="effect1_dropShadow_1870_48782" result="shape"/></filter><filter id="filter3_d_1870_48782" width="34.826" height="39.641" x="96.174" y="86.359" color-interpolation-filters="sRGB" filterUnits="userSpaceOnUse"><feFlood flood-opacity="0" result="BackgroundImageFix"/><feColorMatrix in="SourceAlpha" result="hardAlpha" values="0 0 0 0 0 0 0 0 0 0 0 0 0 0 0 0 0 0 127 0"/><feOffset dy="4"/><feComposite in2="hardAlpha" operator="out"/><feColorMatrix values="0 0 0 0 0 0 0 0 0 0 0 0 0 0 0 0 0 0 1 0"/><feBlend in2="BackgroundImageFix" result="effect1_dropShadow_1870_48782"/><feBlend in="SourceGraphic" in2="effect1_dropShadow_1870_48782" result="shape"/></filter></defs></svg>
